X: 31194
T: Paddy Fahey's
R: jig
M: 6/8
K: Gmajor
DGA ABd|cBA BGE|DGB dcB|cBc AGF|
DGB Bdc|cBA EGE|DGB d{/d}cB|cAF{/F} G2 F||
GFG B^AB|cBA BGE|DGB d{/d}cB|cBc AGF|
DGA ABd|cc/B/A BGE|DGB dc{/c}B|cAF G2 A||
gdB GDB,|G,B,D dBc|Bcc AAG|f/g/af def|
gdB GDB,|G,B,D GBd|gcc B/c/dB|cAF FGf||
gdB GDB,|G,B,D GBd|Bcc Aag|f/g/af def|
gfd [Be]GD|G,B,D GBd|Bcc B/c/dB|cAF FGG||

